X:154
T:Polska efter Adolf Aronsson
R:sl\"angpolska
A:\"Osterg\"otland
B:SvL \"Ogl 293, efter Adolf Aronsson, Borg
Z:id:hn-sp-154
M:3/4
L:1/16
K:Dm
e2 | fgab a3a bagf | efga g3g agfe | fgab a3a bagf | gaba g3g agfe |
f2af fege d^cde | fed^c A=Bcd efge | f2af fege d^cde |
fed^c c2d2 d2 :||: e2 | fcfa fcfa bagf | eceg eceg agfe |
fcfa fcfa bagf | eceg eceg agfe | f2af fege d^cde |
fed^c A=Bcd efge | f2af fege d^cde | fed^c c2d2 d2 :|
<end>
<start>
